;FLAVOR:Marlin
;TIME:1017
;Filament used: 0.613487m
;Layer height: 0.2
;MINX:42.7
;MINY:42.7
;MINZ:0.2
;MAXX:192.3
;MAXY:192.3
;MAXZ:0.2
;Generated with Cura_SteamEngine 5.2.1
M140 S50
M105
M190 S50
M104 S200
M105
M109 S200
M82 ;absolute extrusion mode
; Ender 3 Custom Start G-code
G92 E0 ; Reset Extruder
G28 ; Home all axes
G29 ; auto bed mesh
G1 Z2.0 F3000 ; Move Z Axis up little to prevent scratching of Heat Bed
G1 X0.1 Y20 Z0.3 F5000.0 ; Move to start position
G1 X0.1 Y200.0 Z0.3 F1500.0 E15 ; Draw the first line
G1 X0.4 Y200.0 Z0.3 F5000.0 ; Move to side a little
G1 X0.4 Y20 Z0.3 F1500.0 E30 ; Draw the second line
G92 E0 ; Reset Extruder
G1 Z2.0 F3000 ; Move Z Axis up little to prevent scratching of Heat Bed
G1 X5 Y20 Z0.3 F5000.0 ; Move over to prevent blob squish
G92 E0
G92 E0
G1 F2700 E-5
;LAYER_COUNT:1
;LAYER:0
M107
;MESH:bed-temp-check.stl
G0 F6000 X143.101 Y91.899 Z0.2
;TYPE:WALL-INNER
G1 F2700 E0
G1 F1200 X191.9 Y91.9 E1.62306
G1 X191.9 Y43.1 E3.24616
G1 X143.1 Y43.1 E4.86925
G1 X143.101 Y91.899 E6.49231
G0 F6000 X142.701 Y92.299
;TYPE:WALL-OUTER
G1 F1200 X192.3 Y92.3 E8.14198
G1 X192.3 Y42.7 E9.79168
G1 X142.7 Y42.7 E11.44139
G1 X142.701 Y92.299 E13.09106
G1 F2700 E8.09106
G0 F6000 X142.97 Y92.03
G0 X142.92 Y72.788
G0 X161.623 Y66.485
G0 X160.664 Y72.787
;TYPE:WALL-INNER
G1 F2700 E13.09106
G1 F1200 X160.581 Y72.67 E13.09583
G1 X160.517 Y72.476 E13.10262
G1 X160.183 Y67.154 E13.27998
G1 X160.342 Y66.846 E13.29151
G1 X160.579 Y66.683 E13.30108
G1 X160.755 Y66.646 E13.30706
G1 X161.982 Y66.646 E13.34787
G1 X162.264 Y66.702 E13.35743
G1 X162.556 Y66.936 E13.36988
G1 X162.805 Y67.107 E13.37992
G1 X163.047 Y67.208 E13.38864
G1 X163.387 Y67.297 E13.40033
G1 X163.763 Y67.328 E13.41288
G1 X164.109 Y67.301 E13.42443
G1 X164.405 Y67.225 E13.43459
G1 X164.64 Y67.109 E13.44331
G1 X164.847 Y66.944 E13.45211
G1 X165.009 Y66.744 E13.46067
G1 X165.126 Y66.513 E13.46928
G1 X165.2 Y66.24 E13.47869
G1 X165.227 Y65.911 E13.48967
G1 X165.199 Y65.518 E13.50277
G1 X165.119 Y65.186 E13.51413
G1 X164.999 Y64.922 E13.52378
G1 X164.83 Y64.699 E13.53308
G1 X164.633 Y64.529 E13.54174
G1 X164.393 Y64.405 E13.55072
G1 X164.093 Y64.324 E13.56106
G1 X163.747 Y64.296 E13.57261
G1 X163.179 Y64.366 E13.59164
G1 X162.794 Y64.544 E13.60575
G1 X162.522 Y64.83 E13.61888
G1 X162.287 Y65.375 E13.63862
G1 X162.095 Y65.599 E13.64843
G1 X161.878 Y65.696 E13.65633
G1 X161.747 Y65.71 E13.66072
G1 X160.443 Y65.562 E13.70436
G1 X160.173 Y65.461 E13.71395
G1 X160.055 Y65.354 E13.71925
G1 X159.951 Y65.179 E13.72602
G1 X159.923 Y64.853 E13.7369
G1 X160.096 Y64.232 E13.75835
G1 X160.372 Y63.675 E13.77902
G1 X160.732 Y63.197 E13.79892
G1 X161.203 Y62.786 E13.81972
G1 X161.736 Y62.477 E13.84021
G1 X162.339 Y62.26 E13.86152
G1 X162.999 Y62.136 E13.88386
G1 X163.671 Y62.096 E13.90625
G1 X164.566 Y62.158 E13.93609
G1 X165.329 Y62.345 E13.96222
G1 X166.009 Y62.665 E13.98721
G1 X166.614 Y63.129 E14.01257
G1 X167.087 Y63.694 E14.03708
G1 X167.44 Y64.387 E14.06295
G1 X167.623 Y65.071 E14.0865
G1 X167.655 Y65.38 E14.09683
G1 X167.95 Y64.421 E14.1302
G1 X168.365 Y63.621 E14.16017
G1 X168.938 Y62.946 E14.18962
G1 X169.63 Y62.469 E14.21758
G1 X170.441 Y62.185 E14.24616
G1 X171.366 Y62.096 E14.27707
G1 X172.255 Y62.186 E14.30678
G1 X173.05 Y62.464 E14.3348
G1 X173.764 Y62.95 E14.36352
G1 X174.343 Y63.627 E14.39315
G1 X174.762 Y64.424 E14.4231
G1 X175.056 Y65.359 E14.4557
G1 X175.229 Y66.457 E14.49267
G1 X175.282 Y67.611 E14.53109
G1 X175.225 Y68.845 E14.57218
G1 X175.072 Y69.853 E14.60609
G1 X174.787 Y70.813 E14.6394
G1 X174.376 Y71.628 E14.66976
G1 X173.826 Y72.278 E14.69808
G1 X173.128 Y72.756 E14.72621
G1 X172.308 Y73.04 E14.75508
G1 X171.388 Y73.132 E14.78583
G1 X170.473 Y73.044 E14.8164
G1 X169.622 Y72.768 E14.84616
G1 X168.895 Y72.279 E14.8753
G1 X168.343 Y71.637 E14.90346
G1 X167.935 Y70.833 E14.93345
G1 X167.655 Y69.894 E14.96604
G1 X167.493 Y68.792 E15.00308
G1 X167.442 Y67.638 E15.0415
G1 X167.451 Y67.364 E15.05062
G1 X167.129 Y67.989 E15.07401
G1 X166.684 Y68.529 E15.09728
G1 X166.132 Y68.965 E15.12067
G1 X165.491 Y69.286 E15.14452
G1 X164.787 Y69.468 E15.1687
G1 X164.011 Y69.531 E15.1946
G1 X163.362 Y69.486 E15.21624
G1 X162.703 Y69.342 E15.23867
G1 X162.787 Y70.748 E15.28552
G1 X166.586 Y70.75 E15.41187
G1 X166.754 Y70.788 E15.4176
G1 X167.086 Y71.096 E15.43266
G1 X167.141 Y71.349 E15.44128
G1 X167.141 Y72.386 E15.47577
G1 X167.111 Y72.575 E15.48213
G1 X166.923 Y72.85 E15.49321
G1 X166.671 Y72.984 E15.5027
G1 X161.062 Y72.985 E15.68926
G1 X160.838 Y72.921 E15.69701
G1 X160.664 Y72.787 E15.70431
G0 F6000 X160.917 Y72.48
;TYPE:WALL-OUTER
G1 F1200 X160.592 Y67.213 E15.87983
G1 X160.64 Y67.112 E15.88355
G1 X160.737 Y67.046 E15.88745
G1 X162.054 Y67.046 E15.93125
G1 X162.317 Y67.258 E15.94249
G1 X162.613 Y67.46 E15.95441
G1 X162.918 Y67.588 E15.96541
G1 X163.319 Y67.693 E15.9792
G1 X163.762 Y67.73 E15.99398
G1 X164.175 Y67.697 E16.00776
G1 X164.545 Y67.602 E16.02047
G1 X164.856 Y67.449 E16.03199
G1 X165.13 Y67.23 E16.04366
G1 X165.347 Y66.963 E16.0551
G1 X165.502 Y66.657 E16.06651
G1 X165.596 Y66.309 E16.0785
G1 X165.628 Y65.913 E16.09172
G1 X165.596 Y65.456 E16.10695
G1 X165.499 Y65.055 E16.12068
G1 X165.345 Y64.716 E16.13306
G1 X165.124 Y64.423 E16.14527
G1 X164.858 Y64.195 E16.15692
G1 X164.539 Y64.03 E16.16886
G1 X164.162 Y63.928 E16.18185
G1 X163.739 Y63.894 E16.19597
G1 X163.068 Y63.977 E16.21846
G1 X162.557 Y64.213 E16.23718
G1 X162.183 Y64.606 E16.25522
G1 X161.918 Y65.215 E16.27731
G1 X161.775 Y65.313 E16.28308
G1 X160.489 Y65.165 E16.32613
G1 X160.399 Y65.131 E16.32933
G1 X160.323 Y65.031 E16.33351
G1 X160.316 Y64.928 E16.33694
G1 X160.466 Y64.394 E16.35539
G1 X160.712 Y63.885 E16.37419
G1 X161.019 Y63.48 E16.3911
G1 X161.451 Y63.104 E16.41015
G1 X161.89 Y62.85 E16.42702
G1 X162.43 Y62.652 E16.44614
G1 X163.048 Y62.533 E16.46708
G1 X163.721 Y62.496 E16.4895
G1 X164.497 Y62.552 E16.51537
G1 X165.183 Y62.721 E16.53887
G1 X165.809 Y63.012 E16.56183
G1 X166.337 Y63.417 E16.58396
G1 X166.745 Y63.908 E16.6052
G1 X167.057 Y64.515 E16.6279
G1 X167.235 Y65.174 E16.6506
G1 X167.258 Y65.429 E16.65912
G1 F1021.3 X167.367 Y65.921 E16.67881
G1 F904 X167.303 Y66.635 E16.71046
G1 F1041.2 X167.066 Y67.239 E16.73533
G1 F1200 X166.779 Y67.783 E16.75579
G1 X166.408 Y68.235 E16.77524
G1 X165.916 Y68.629 E16.7962
G1 X165.366 Y68.901 E16.81661
G1 X164.718 Y69.074 E16.83892
G1 X164.028 Y69.128 E16.86194
G1 X163.401 Y69.085 E16.88284
G1 X162.853 Y68.962 E16.90152
G1 X162.264 Y68.718 E16.92273
G1 X162.41 Y71.148 E17.00369
G1 X166.598 Y71.149 E17.14299
G1 X166.741 Y71.281 E17.14946
G1 X166.741 Y72.386 E17.18621
G1 X166.708 Y72.498 E17.1901
G1 X166.603 Y72.586 E17.19465
G1 X161.094 Y72.586 E17.37788
G1 X160.917 Y72.48 E17.38475
G1 F2700 E12.38475
G0 F6000 X160.616 Y72.498
G0 X160.707 Y72.815
G0 X166.969 Y72.814
G0 X167.234 Y71.034
G0 X165.889 Y70.589
G0 X162.949 Y70.576
G0 X162.892 Y69.563
G0 X166.281 Y69.056
G0 X167.274 Y68.094
G0 X168.201 Y71.235
G0 X169.644 Y72.881
G1 F2700 E17.38475
G0 F6000 X169.798 Y72.404
G1 F1200 X169.175 Y71.991 E17.40961
G1 X168.679 Y71.414 E17.43491
G1 X168.314 Y70.695 E17.46173
G1 X168.051 Y69.824 E17.49199
G1 X167.895 Y68.795 E17.52661
G1 X167.842 Y67.62 E17.56573
G1 X167.854 Y67.322 E17.57565
G1 F1041.2 X167.822 Y66.703 E17.59941
G1 F921.3 X167.837 Y66.441 E17.61078
G1 F907.4 X167.904 Y65.942 E17.63292
G1 F1021.3 X168.318 Y64.586 E17.68833
G1 F1200 X168.708 Y63.832 E17.71657
G1 X169.197 Y63.256 E17.7417
G1 X169.802 Y62.835 E17.76621
G1 X170.538 Y62.576 E17.79216
G1 X171.338 Y62.496 E17.8189
G1 X172.17 Y62.58 E17.84672
G1 X172.886 Y62.833 E17.87197
G1 X173.489 Y63.248 E17.89632
G1 X174 Y63.84 E17.92233
G1 X174.383 Y64.563 E17.94954
G1 X174.665 Y65.451 E17.98053
G1 X174.827 Y66.453 E18.01429
G1 X174.882 Y67.611 E18.05285
G1 X174.829 Y68.785 E18.09194
G1 X174.676 Y69.793 E18.12585
G1 X174.415 Y70.665 E18.15612
G1 X174.04 Y71.405 E18.18371
G1 X173.556 Y71.978 E18.20866
G1 X172.957 Y72.39 E18.23284
G1 X172.225 Y72.645 E18.25862
G1 X171.406 Y72.728 E18.286
G1 X170.542 Y72.65 E18.31486
G1 X169.798 Y72.404 E18.34092
G0 F6000 X169.644 Y72.881
G0 X167.764 Y70.826
G0 X167.274 Y68.094
G0 X164.742 Y69.636
G0 X162.892 Y69.563
G0 X162.864 Y70.369
G0 X163.158 Y70.352
;TYPE:SKIN
G1 F1048 X164.046 Y70.364 E18.37474
G1 F1025.6 X164.927 Y70.345 E18.40903
G1 F1083.5 X165.677 Y70.389 E18.43671
G1 F1200 X166.61 Y70.391 E18.46774
G1 F1129.4 X166.89 Y70.448 E18.47784
G1 F1010.5 X167.404 Y70.852 E18.50366
G1 F898.9 X167.506 Y70.958 E18.51019
G1 X167.493 Y70.797 E18.51736
G1 F1066.7 X167.376 Y70.223 E18.53928
G1 F1200 X167.295 Y69.948 E18.54882
G1 X167.143 Y68.922 E18.58331
G1 X167.125 Y68.56 E18.59537
G1 X166.921 Y68.803 E18.60592
G1 X166.33 Y69.268 E18.63093
G1 X165.622 Y69.622 E18.65726
G1 F1086 X164.846 Y69.869 E18.68719
G1 F1027.8 X164.029 Y69.915 E18.71896
G1 F1048 X163.298 Y69.875 E18.74684
G1 F1025.6 X163.127 Y69.838 E18.75365
G1 X163.158 Y70.352 E18.77369
G0 F6000 X162.864 Y70.369
G0 X162.625 Y70.92
G0 X166.969 Y70.921
G0 X166.969 Y72.814
G0 X160.707 Y72.815
G0 X160.336 Y66.819
G0 X162.138 Y66.809
G0 X162.946 Y67.057
G0 X163.041 Y66.833
G1 F1200 X163.451 Y66.941 E18.78779
G1 X163.763 Y66.967 E18.79821
G1 X164.047 Y66.944 E18.80768
G1 X164.434 Y66.808 E18.82133
G1 X164.71 Y66.538 E18.83417
G1 X164.843 Y66.176 E18.847
G1 X164.865 Y65.906 E18.85601
G1 X164.842 Y65.574 E18.86707
G1 X164.744 Y65.174 E18.88077
G1 X164.421 Y64.827 E18.89654
G1 X164.029 Y64.68 E18.91046
G1 X163.755 Y64.658 E18.91961
G1 X163.282 Y64.718 E18.93546
G1 X163.009 Y64.843 E18.94545
G1 X162.824 Y65.037 E18.95437
G1 X162.609 Y65.538 E18.9725
G1 X162.338 Y65.862 E18.98655
G1 X162.271 Y65.909 E18.98927
G1 F985.6 X162.022 Y66.116 E19.00238
G1 F794.7 X161.939 Y66.169 E19.00733
G1 X162.032 Y66.204 E19.01232
G1 F985.6 X162.394 Y66.383 E19.02867
G1 F1200 X163.041 Y66.833 E19.05489
G0 F6000 X162.946 Y67.057
G0 X161.646 Y66.545
G0 X161.939 Y66.169
G1 F768 X161.745 Y66.178 E19.06498
G1 F748.8 X161.273 Y66.153 E19.09017
G0 F6000 X161.318 Y65.766
G0 X162.446 Y65.412
G0 X162.658 Y64.92
G0 X162.89 Y64.678
G0 X163.381 Y64.503
G0 X164.065 Y64.483
G0 X164.542 Y64.663
G0 X164.86 Y65.005
G0 X165.047 Y65.652
G0 X165.002 Y66.354
G0 X164.733 Y66.829
G0 X164.242 Y67.101
G0 X163.526 Y67.147
G0 X161.291 Y66.485
G0 X160.336 Y66.819
G0 X160.707 Y72.815
G0 X161.05 Y73.083
G0 X161.017 Y73.342
G1 F1200 X160.712 Y73.265 E19.10063
G1 X160.402 Y73.035 E19.11347
G1 X160.257 Y72.829 E19.12185
G1 X160.163 Y72.555 E19.13149
G1 X159.832 Y67.177 E19.3107
G1 X159.923 Y66.829 E19.32266
G1 X160.107 Y66.575 E19.33309
G1 F1224.5 X160.432 Y66.356 E19.34587
G1 F1269.8 X160.71 Y66.304 E19.35476
G1 F1322.3 X160.874 Y66.308 E19.35971
G1 F939.3 X161.273 Y66.153 E19.37789
G1 X160.894 Y65.954 E19.39608
G1 F1269.8 X160.357 Y65.91 E19.41302
G1 F1200 X160.011 Y65.78 E19.42531
G1 X159.773 Y65.576 E19.43574
G1 X159.558 Y65.212 E19.4498
G1 X159.567 Y64.793 E19.46374
G1 X159.755 Y64.125 E19.48682
G1 X160.064 Y63.488 E19.51037
G1 X160.446 Y62.98 E19.53151
G1 X160.977 Y62.504 E19.55523
G1 X161.583 Y62.152 E19.57853
G1 X162.248 Y61.909 E19.60208
G1 X162.944 Y61.779 E19.62563
G1 X163.775 Y61.737 E19.65331
G1 X164.616 Y61.798 E19.68135
G1 X165.422 Y61.996 E19.70896
G1 X166.219 Y62.367 E19.7382
G1 X166.854 Y62.859 E19.76491
G1 X167.387 Y63.491 E19.79241
G1 X167.705 Y64.111 E19.81559
G1 X168.057 Y63.43 E19.84108
G1 X168.68 Y62.686 E19.87336
G1 X169.449 Y62.157 E19.9044
G1 X170.341 Y61.837 E19.93592
G1 X171.322 Y61.736 E19.96872
G1 X172.349 Y61.836 E20.00304
G1 X173.262 Y62.168 E20.03536
G1 X174.001 Y62.675 E20.06516
G1 X174.64 Y63.419 E20.09778
G1 X175.09 Y64.281 E20.13012
G1 X175.407 Y65.268 E20.1646
G1 X175.589 Y66.44 E20.20405
G1 X175.642 Y67.618 E20.24327
G1 X175.583 Y68.878 E20.28523
G1 X175.419 Y69.972 E20.32202
G1 X175.127 Y70.932 E20.35539
G1 X174.692 Y71.808 E20.38792
G1 X174.074 Y72.541 E20.41981
G1 X173.301 Y73.075 E20.45106
G1 X172.386 Y73.39 E20.48325
G1 X171.369 Y73.492 E20.51724
G1 X170.39 Y73.395 E20.54996
G1 X169.447 Y73.089 E20.58294
G1 X168.682 Y72.576 E20.61357
G1 X168.058 Y71.86 E20.64516
G1 F1176.5 X167.756 Y71.294 E20.66693
G1 F965.8 X167.521 Y71.007 E20.68225
G1 F935.7 X167.52 Y71.304 E20.69492
G1 F1111.1 X167.51 Y71.352 E20.69668
G1 F1176.5 X167.499 Y72.411 E20.73261
G1 F1200 X167.459 Y72.664 E20.74113
G1 X167.352 Y72.903 E20.74984
G1 X167.144 Y73.133 E20.76016
G1 X166.827 Y73.308 E20.7722
G1 X166.627 Y73.343 E20.77895
G1 X161.017 Y73.342 E20.96554
G1 F2700 E15.96554
G0 F6000 X161.05 Y73.083
G0 X160.707 Y72.815
G0 X160.336 Y66.819
G0 X161.623 Y66.485
G0 X143.301 Y81.137
G0 X143.462 Y91.538
G1 F2700 E20.96554
G1 F1200 X191.54 Y91.54 E22.56462
G1 X191.54 Y43.46 E24.16377
G1 X143.46 Y43.46 E25.76292
G1 X143.462 Y91.538 E27.362
G0 F6000 X143.66 Y91.052
G1 F1200 X143.947 Y91.338 E27.37547
G0 F6000 X144.512 Y91.338
G1 F1200 X143.66 Y90.486 E27.41555
G0 F6000 X143.66 Y89.92
G1 F1200 X145.078 Y91.338 E27.48225
G0 F6000 X145.644 Y91.338
G1 F1200 X143.66 Y89.354 E27.57557
G0 F6000 X143.66 Y88.789
G1 F1200 X146.209 Y91.338 E27.69547
G0 F6000 X146.775 Y91.338
G1 F1200 X143.66 Y88.223 E27.84199
G0 F6000 X143.66 Y87.657
G1 F1200 X147.341 Y91.338 E28.01513
G0 F6000 X147.906 Y91.338
G1 F1200 X143.66 Y87.092 E28.21485
G0 F6000 X143.66 Y86.526
G1 F1200 X148.472 Y91.338 E28.44119
G0 F6000 X149.038 Y91.338
G1 F1200 X143.66 Y85.96 E28.69416
G0 F6000 X143.66 Y85.395
G1 F1200 X149.603 Y91.338 E28.9737
G0 F6000 X150.169 Y91.338
G1 F1200 X143.66 Y84.829 E29.27986
G0 F6000 X143.66 Y84.263
G1 F1200 X150.735 Y91.338 E29.61265
G0 F6000 X151.301 Y91.338
G1 F1200 X143.66 Y83.698 E29.97203
G0 F6000 X143.66 Y83.132
G1 F1200 X151.866 Y91.338 E30.35802
G0 F6000 X152.432 Y91.338
G1 F1200 X143.66 Y82.566 E30.77062
G0 F6000 X143.66 Y82.001
G1 F1200 X152.998 Y91.338 E31.20983
G0 F6000 X153.563 Y91.338
G1 F1200 X143.66 Y81.435 E31.67564
G0 F6000 X143.66 Y80.869
G1 F1200 X154.129 Y91.338 E32.16807
G0 F6000 X154.695 Y91.338
G1 F1200 X143.66 Y80.303 E32.68712
G0 F6000 X143.66 Y79.738
G1 F1200 X155.26 Y91.338 E33.23275
G0 F6000 X155.826 Y91.338
G1 F1200 X143.66 Y79.172 E33.805
G0 F6000 X143.66 Y78.606
G1 F1200 X156.392 Y91.338 E34.40387
G0 F6000 X156.957 Y91.338
G1 F1200 X143.66 Y78.041 E35.02932
G0 F6000 X143.66 Y77.475
G1 F1200 X157.523 Y91.338 E35.6814
G0 F6000 X158.089 Y91.338
G1 F1200 X143.66 Y76.909 E36.36009
G0 F6000 X143.66 Y76.344
G1 F1200 X158.654 Y91.338 E37.06537
G0 F6000 X159.22 Y91.338
G1 F1200 X143.66 Y75.778 E37.79726
G0 F6000 X143.66 Y75.212
G1 F1200 X159.786 Y91.338 E38.55578
G0 F6000 X160.352 Y91.338
G1 F1200 X143.66 Y74.646 E39.34092
G0 F6000 X143.66 Y74.08
G1 F1200 X160.917 Y91.338 E40.15266
G0 F6000 X161.483 Y91.338
G1 F1200 X143.66 Y73.515 E40.991
G0 F6000 X143.66 Y72.949
G1 F1200 X162.049 Y91.338 E41.85596
G0 F6000 X162.614 Y91.338
G1 F1200 X143.66 Y72.383 E42.74752
G0 F6000 X143.66 Y71.818
G1 F1200 X163.18 Y91.338 E43.66568
G0 F6000 X163.746 Y91.338
G1 F1200 X143.66 Y71.252 E44.61047
G0 F6000 X143.66 Y70.686
G1 F1200 X164.311 Y91.338 E45.58185
G0 F6000 X164.877 Y91.338
G1 F1200 X143.66 Y70.12 E46.57986
G0 F6000 X143.66 Y69.555
G1 F1200 X165.443 Y91.338 E47.60446
G0 F6000 X166.008 Y91.338
G1 F1200 X143.66 Y68.989 E48.65567
G0 F6000 X143.66 Y68.423
G1 F1200 X166.574 Y91.338 E49.73349
G0 F6000 X167.14 Y91.338
G1 F1200 X143.66 Y67.858 E50.83792
G0 F6000 X143.66 Y67.292
G1 F1200 X167.706 Y91.339 E51.96899
G0 F6000 X168.272 Y91.339
G1 F1200 X143.66 Y66.726 E53.12669
G0 F6000 X143.66 Y66.161
G1 F1200 X168.838 Y91.339 E54.31099
G0 F6000 X169.403 Y91.339
G1 F1200 X143.66 Y65.595 E55.52188
G0 F6000 X143.66 Y65.029
G1 F1200 X169.969 Y91.339 E56.7594
G0 F6000 X170.535 Y91.339
G1 F1200 X143.66 Y64.464 E58.02352
G0 F6000 X143.66 Y63.898
G1 F1200 X171.1 Y91.339 E59.31423
G0 F6000 X171.666 Y91.339
G1 F1200 X143.66 Y63.332 E60.63157
G0 F6000 X143.66 Y62.767
G1 F1200 X172.232 Y91.339 E61.97551
G0 F6000 X172.797 Y91.339
G1 F1200 X143.66 Y62.201 E63.34605
G0 F6000 X143.66 Y61.635
G1 F1200 X173.363 Y91.339 E64.74321
G0 F6000 X173.929 Y91.339
G1 F1200 X143.66 Y61.069 E66.167
G0 F6000 X143.66 Y60.504
G1 F1200 X174.494 Y91.339 E67.61736
